X: 36913
T: Shootin' The Bull
R: polka
M: 2/4
K: Adorian
|:eA Ad|ef gf|ea ae|d2 d2|
eA Ad|ef gf|ef/e/ dB|A2 A2:|
|:ea ag|ed d2|ea ag|eg g2|
ea ag|ed d2|ef/e/ dB|A2 A2:|

